localPackages/DesignSystem/Sources/DesignSystem/Resources/Assets.xcassets/IconSet/ic-lock-open-pen-filled.imageset/ic-lock-open-pen-filled.svg

<svg width="24" height="24" viewBox="0 0 24 24" fill="none" xmlns="http://www.w3.org/2000/svg">
<g id="ic-lock-open-pen-filled">
<path id="Icon" fill-rule="evenodd" clip-rule="evenodd" d="M12.3579 4.40249C11.504 3.2746 10.0602 2.76388 8.68706 3.10397C7.10862 3.4949 6 4.91158 6 6.53771V7.50008C6.09693 7.5 6.19689 7.5 6.3 7.5H13.2C14.8802 7.5 15.7202 7.5 16.362 7.82698C16.7714 8.03557 17.1252 8.33427 17.3985 8.69799L11.8485 14.2245C11.401 14.67 11.0966 15.2388 10.9746 15.8583L10.5642 17.6395L10.5582 17.672C10.3095 19.0206 11.5094 20.1706 12.8333 19.8984L12.8603 19.8928L14.6277 19.4613C15.2226 19.3328 15.7689 19.0364 16.2009 18.6062L18 16.8147V17.7C18 19.3802 18 20.2202 17.673 20.862C17.3854 21.4265 16.9265 21.8854 16.362 22.173C15.7202 22.5 14.8802 22.5 13.2 22.5H6.3C4.61984 22.5 3.77976 22.5 3.13803 22.173C2.57354 21.8854 2.1146 21.4265 1.82698 20.862C1.5 20.2202 1.5 19.3802 1.5 17.7V12.3C1.5 10.6198 1.5 9.77976 1.82698 9.13803C2.1146 8.57354 2.57354 8.1146 3.13803 7.82698C3.49429 7.64546 3.91168 7.56471 4.5 7.52878V6.53771C4.5 4.22204 6.0787 2.20466 8.32646 1.64796C10.2819 1.16366 12.3378 1.89094 13.5538 3.49709L14.098 4.21586C14.348 4.54611 14.2829 5.01651 13.9527 5.26652C13.6225 5.51654 13.1521 5.45151 12.902 5.12126L12.3579 4.40249ZM19.9906 8.18891C20.3204 7.86021 20.855 7.86021 21.1848 8.18891L22.2527 9.25471C22.5824 9.58342 22.5824 10.1164 22.2527 10.4451L15.1331 17.5419C14.8999 17.7744 14.6035 17.9337 14.2805 18.0002L12.5078 18.4335C12.2144 18.4938 11.953 18.2389 12.0072 17.9453L12.4186 16.1577C12.4804 15.8219 12.6432 15.5129 12.8854 15.2714L19.9906 8.18891Z" fill="#0F0F0F"/>
</g>
</svg>

<svg xmlns="http://www.w3.org/2000/svg" width="24" height="24" viewBox="0 0 24 24">
  <g class="ic-lock-open-pen-filled">
    <path fill-rule="evenodd" d="M12.358 4.402A3.538 3.538 0 0 0 6 6.538V7.5h7.2c1.68 0 2.52 0 3.162.327a3 3 0 0 1 1.037.871l-5.55 5.527a3.17 3.17 0 0 0-.874 1.633l-.41 1.782-.007.032a1.919 1.919 0 0 0 2.275 2.226l.027-.005 1.768-.432a3.181 3.181 0 0 0 1.573-.855L18 16.815v.885c0 1.68 0 2.52-.327 3.162a3 3 0 0 1-1.311 1.311c-.642.327-1.482.327-3.162.327H6.3c-1.68 0-2.52 0-3.162-.327a3 3 0 0 1-1.311-1.311C1.5 20.22 1.5 19.38 1.5 17.7v-5.4c0-1.68 0-2.52.327-3.162a3 3 0 0 1 1.311-1.311c.356-.182.774-.262 1.362-.298v-.991a5.037 5.037 0 0 1 9.054-3.04l.544.718a.75.75 0 0 1-1.196.905l-.544-.719ZM19.99 8.19a.846.846 0 0 1 1.194 0l1.068 1.066a.84.84 0 0 1 0 1.19l-7.12 7.097a1.69 1.69 0 0 1-.852.458l-1.773.433a.422.422 0 0 1-.5-.488l.41-1.787c.062-.336.225-.645.467-.887L19.99 8.19Z" class="Icon"/>
  </g>
</svg>
